dist/svg/add-square-plus-o.svg

<!-- Generated by Trend Micro Style Portal -->
<svg version="1.1" xmlns="http://www.w3.org/2000/svg" width="16" height="16" viewBox="0 0 16 16">
  <title>add-square-plus-o</title>
  <path fill="rgb(34,34,34)" d="M11 9h3v2h-3v3h-2v-3h-3v-2h3v-3h2zM16 5v10c-0.002 0.552-0.448 0.998-1 1h-10c-0.552-0.002-0.998-0.448-1-1v-1h-1c-0.552-0.002-0.998-0.448-1-1v-1h-1c-0.552-0.002-0.998-0.448-1-1v-10c0.002-0.552 0.448-0.998 1-1h10c0.552 0.002 0.998 0.448 1 1v1h1c0.552 0.002 0.998 0.448 1 1v1h1c0.552 0.002 0.998 0.448 1 1v0zM3 2h8v-1h-10v10h1v-8c0.002-0.552 0.448-0.998 1-1h0zM5 4h8v-1h-10v10h1v-8c0.002-0.552 0.448-0.998 1-1h0zM15 5h-10v10h10z"></path>
</svg>

<svg width="16" height="16" viewBox="0 0 16 16" fill="rgb(34, 34, 34)" xmlns="http://www.w3.org/2000/svg"><title>add-square-plus-o</title><path d="M11 9H14V11H11V14H9V11H6V9H9V6H11V9ZM16 5V15C15.998 15.552 15.552 15.998 15 16H5C4.448 15.998 4.002 15.552 4 15V14H3C2.448 13.998 2.002 13.552 2 13V12H1C0.448 11.998 0.002 11.552 0 11V1C0.002 0.448 0.448 0.002 1 0H11C11.552 0.002 11.998 0.448 12 1V2H13C13.552 2.002 13.998 2.448 14 3V4H15C15.552 4.002 15.998 4.448 16 5ZM3 2H11V1H1V11H2V3C2.002 2.448 2.448 2.002 3 2ZM5 4H13V3H3V13H4V5C4.002 4.448 4.448 4.002 5 4ZM15 5H5V15H15V5Z" fill="rgb(34, 34, 34)" fill-opacity="1.00"/></svg>
